!!!COM: MacDowell, Edward
!!!CDT: 1860/12/18/-1908/01/23/
!!!OPR: Second Modern Suite, Op. 14
!!!ODT: 1882///
!!!OTL: Dance of Fantasy
!!!OPS: Op. 14
!!!ONM: No. 5
!!!OMD: Molto allegro, con fuoco
**kern	**kern	**dynam
*staff2	*staff1	*staff1/2
*Ipiano	*Ipiano	*Ipiano
*clefF4	*clefG2	*clefG2
*k[f#c#g#]	*k[f#c#g#]	*k[f#c#g#]
*A:	*A:	*A:
*M2/4	*M2/4	*M2/4
*MM152	*MM152	*MM152
=1-	=1-	=1-
8AA'\L	8r	.
8E'\ 8c#'\	4ee^\ 4eee^\	mf
8AA'\	.	.
8E'\ 8c#'\J	8e'/ 8ee'/	.
=2	=2	=2
8AA'\L	(16ff#\LL	<
.	16ee#\	.
8F#'\ 8d'\	16ff#\	.
.	16aa'\JJ)	.
8AA'\	(16gg#\LL	.
.	16ff##\	.
8Fn'\ 8d'\J	16gg#\	.
.	16bb'\JJ)	.
=3	=3	=3
8AA'\L	8r	.
8E'\ 8c#'\	4ee^\ 4eee^\	.
8AA'\	.	.
8E'\ 8c#'\J	8e'/ 8ee'/	.
=4	=4	=4
8AA'\L	(16ff#\LL	<
.	16ee#\	.
8F#'\ 8d'\	16ff#\	.
.	16aa'\JJ)	.
8AA'\	(16gg#\LL	.
.	16ff##\	.
8Fn'\ 8d'\J	16gg#\	.
.	16bb'\JJ)	.
=5	=5	=5
*^	*^	*
4e/	(8e\	(16aa/LL	8r	p
.	.	16ccc#/	.	.
.	8r	16aa/	8f#'\ 8a'\ 8cc#'\	.
.	.	16ff#/JJ	.	.
4d#/	8d#\	16cc#/LL	8r	.
.	.	16dd#/	.	.
.	8r	16ff#/	8f#'\ 8a'\	.
.	.	16aa/JJ)	.	.
=6	=6	=6	=6	=6
4c#/	8c#\	16aa/LL	8r	.
.	.	16ccc#/	.	.
.	8r	16aa/	8d#'\ 8f#'\ 8a'\	.
.	.	16ff#/JJ	.	.
4B/)	8B\	16cc#/LL	8r	.
.	.	16dd#/	.	.
.	8r	16ff#/	8d#'\ 8f#'\ 8a'\	.
.	.	&(16aa/JJ&)	.	.
*v	*v	*	*	*
*	*v	*v	*
=7	=7	=7
4E'\ 4B'\ 4g#'\	16ff#\LL	.
.	16ddd\	.
.	16bb\	.
.	16gg#\JJ	.
4r	16ff#\LL	.
.	16dd\	.
.	16b\	.
.	16g#\JJ	.
=8	=8	=8
8EEE'/ 8EE'/	16f#/LL	.
.	16d/	.
8r	16B/	.
.	16G#/JJ	.
16F#/LL	4r	.
16D/	.	.
16BB/	.	.
16GG#'/JJ	.	.
=9	=9	=9
8AA'\L	8r	.
8E'\ 8c#'\	4ee^\ 4eee^\	f
8AA'\	.	.
8E'\ 8c#'\J	8e'/ 8ee'/	.
=10	=10	=10
8AA'\L	(16ff#\LL	<
.	16ee#\	.
8F#'\ 8d'\	16ff#\	.
.	16aa'\JJ)	.
8AA'\	(16gg#\LL	.
.	16ff##\	.
8Fn\ 8d\J	16gg#\	.
.	16bb'\JJ)	f
=11	=11	=11
8AA'\L	8r	.
8E'\ 8c#'\	4ee^\ 4eee^\	.
8AA'\	.	.
8E'\ 8c#'\J	8e'/ 8ee'/	.
=12	=12	=12
8AA'\L	(16ff#\LL	<
.	16ee#\	.
8F#'\ 8d'\	16ff#\	.
.	16aa'\JJ)	.
8AA'\	(16gg#\LL	.
.	16ff##\	.
8Fn'\ 8d'\J	16gg#\	.
.	16bb'\JJ)	.
=13	=13	=13
*^	*^	*
4e/	8e\	(16aa/LL	8r	p
.	.	16gg#/	.	.
.	8r	16aa/	8f#\ 8a\ 8cc#\	.
.	.	16ccc#'/JJ)	.	.
4dn/	8dn\	(16bb/LL	8r	.
.	.	16ccc#/	.	.
.	8r	16bb/	8e'\ 8g#'\	.
.	.	16gg#/JJ)	.	.
=14	=14	=14	=14	=14
4c#/	8c#\	(16ff#/LL	8r	.
.	.	16ee#/	.	.
.	8r	16ff#/	8d#'\ 8f#'\ 8a'\	.
.	.	16aa'/JJ	.	.
4cn/	8cn\	(16gg#/LL)	8r	.
.	.	16bb/	.	.
.	8r	16gg#/	8d#'\ 8a'\	.
.	.	16ff#'/JJ)	.	.
*v	*v	*	*	*
*	*v	*v	*
=15	=15	=15
8B\ (8d#\L	(16ffn\LL	f
.	16aa\J	.
8fn'\ 8a'\J)	8dd#'\J)	.
*clefG2	*	*
8b\ (8dd#\L	(16fffn\LL	<
.	16aaa\J	.
8ffn'\ 8aa'\J)	8ddd#'\J)	.
*clefF4	*	*
=16	=16	=16
8B\ (8d#\L	(16ffn\LL	.
.	16aa\J	.
8fn'\ 8a'\J)	8dd#'\J)	.
8BB\ (8D#\L	(16fn/LL	.
.	16a/J	.
8Fn'\ 8A'\J)	8d#'/J)	.
=17	=17	=17
(16dn\LL	[2e/	ff
16A#\J	.	.
[8B\J	.	.
16B\LL]	.	.
16F##\J	.	.
[8G#^\J	.	.
=18	=18	=18
16G#\LL]	2e/]	.
16D#\J	.	.
[8E^\J	.	.
16E/LL]	.	.
16AA#/J	.	.
8BB^/J	.	.
=19	=19	=19
!	!e#q/LLL	!.
!	!f#q/	!.
!	!g#q/JJJ	!.
8AAn'\L)	&(8a'/&)	p
8E\ 8c#\	4a^/	.
8AA'\	.	.
8E'\ 8c#'\J	&(8e'/&)	.
=20	=20	=20
8AA'\L	(16f#/LL	<
.	16e#'/	.
8F#'\ 8d'\	16f#/	.
.	16a'/JJ)	.
8AA'\	(16g#/LL	.
.	16f##/	.
8Fn'\ 8d'\J	16g#'/	.
.	16b'/JJ)	p
=21	=21	=21
8AA'\L	8r	.
8E'\ 8c#'\	(4a^/	.
8AA'\	.	.
8E'\ 8c#'\J	8e'/)	.
=22	=22	=22
8AA'\L	(16f#/LL	<
.	16e#/	.
8F#'\ 8d'\	16f#/	.
.	16a/JJ)	.
8AA'\	(16g#/LL	.
.	16f##/	.
8Fn'\ 8d'\J	16g#'/	.
.	16b'/JJ)	p
=23	=23	=23
(16AA/LL	8r	.
16GG#/	.	.
16AA/	8c#'/ 8a'/ 8cc#'/	.
16C#'/JJ)	.	.
(16BB/LL	8r	.
16AA#/	.	.
16BB/	8d'/ 8g#'/ 8dd'/	.
16Dn'/JJ)	.	.
=24	=24	=24
(16C#\LL	8r	.
16BB#\	.	.
16C#\	8c#'/ 8b'/ 8cc#'/	.
16E#'\JJ)	.	.
(16F#\LL	8r	.
16E#\	.	.
16F#\	8c#'/ 8a'/ 8cc#'/	.
16A'\JJ)	.	.
=25	=25	=25
8Gn'\L	(16b\LL	<
.	16a#\	.
8A'\ 8c#'\ 8e'\	16b\	.
.	16ee'\JJ)	.
8F#'\	(16dd\LL	.
.	16cc#\	.
8A'\ 8d'\ 8f#'\J	16dd\	.
.	16ff#'\JJ)	.
=26	=26	=26
8E'\L	(16ggn\LL	.
.	16ff#\	.
8Gn'\ 8A'\ 8c#'\	16gg\	.
.	16aa'\JJ)	.
8D'\	(16ff#\LL	.
.	16ee#\	.
8F#'\ 8A'\ 8d'\J	16ff#\	.
.	16aa'\JJ)	.
=27	=27	=27
*	*^	*
2r	(16bb-/LL	8r	f
.	16aa/	.	.
.	16bb-/	8gn\ 8b-\ 8ee-\	.
.	16eee-'/JJ)	.	.
.	8r	(16f#\LL	.
.	.	16e#\	.
.	8dd/ 8aa/ 8ddd/	16f#\	.
.	.	16a'\JJ)	.
*	*v	*v	*
=28	=28	=28
8r	(16b-\LL	.
.	16a\	.
8Gn'\ 8B-'\ 8e-'\	16b-\	.
.	16ee-'\JJ)	.
(16F#\LL	8r	.
16E#\	.	.
16F#\	8d'/ 8a'/ 8dd'/	.
16A'\JJ)	.	.
=29	=29	=29
8FF#'\L	(16d/LL	p
.	16c#/	.
8D'\ 8A'\	16d/	.
.	16f#'/JJ)	.
8BB-'\	(16gn/LL	<
.	16f#/	.
8Gn'\ 8d'\J	16g/	.
.	16b-'/JJ)	.
=30	=30	=30
8Gn'\L	(16a\LL	.
.	16b-\	.
8A\ 8c#\ 8e\	16bn\	.
.	16cc#\JJ	.
8Fn'\	8dd'\L)	.
8A'\ 8d'\ 8fn'\J	8dd'\J	.
=31	=31	=31
8B-'\L	(16ccn\LL	<
.	16b\	.
8cn'\ 8e'\ 8gn'\	16cc\	.
.	16ee'\JJ)	.
8A-'\	(16ffn\LL	.
.	16ee\	.
8c'\ 8fn'\ 8a-'\J	16ff\	.
.	16aa-'\JJ)	.
=32	=32	=32
8Gn'\L	(16cccn\LL	.
.	16ccc\	.
8B-'\ 8cn'\ 8e'\	16ddd\	.
.	16eee\JJ	.
8Fn'\	8fffn'\L)	.
8A-'\ 8c'\ 8fn'\J	8fff'\J	.
=33	=33	=33
(16EE-/LL	8r	.
16DDn/	.	.
16EE-/	8gg-'\ 8eee-'\ 8ggg-'\	ff
16AA'/JJ)	.	.
(16BB-^/LL	8r	.
16AA/	.	.
16BB-/	8ee-'\ 8gg-'\ 8eee-'\	.
16E-'/JJ)	.	.
=34	=34	=34
(16E-^\LL	8r	.
16D\	.	.
16E-\	8b-'\ 8gg-'\ 8bb-'\	.
16A'\JJ)	.	.
(16B-\LL	8r	.
16A\	.	.
16B-\	8g-'\ 8ee-'\ 8gg-'\	.
16e-'\JJ)	.	.
=35	=35	=35
8c#'\L	(16ff#^\LL	.
.	16aa#\	.
8d#'\ 8f#'\ 8a#'\	16ff#\	.
.	16cc##\JJ)	.
8B#'\	(16dd#^\LL	.
.	16ff#\	.
8d#'\ 8f#'\J	16dd#\	.
.	16a#'\JJ)	.
=36	=36	=36
8A#'\L	(16ff#\LL	.
.	16aa#\	.
8d#'\ 8f#'\	16ff#\	.
.	16cc##'\JJ)	.
8G#'\	(16dd#\LL	.
.	16ff#^\	.
8d#'\ 8f#'\J	16dd#\	.
.	16a#'\JJ)	.
=37	=37	=37
8BB#'\L	8r	.
8G#'\ 8d#'\	4gg#^\ 4ggg#^\	ff
8BB#'\	.	.
8G#'\ 8d#'\J	8g#'\ 8gg#'\	<
=38	=38	=38
8C#'\L	(16gg#\LL	.
.	16ff##\	.
8G#'\ 8e'\	16gg#\	.
.	16ccc#'\JJ)	.
8C##'\	(16gg#\LL	.
.	16ff##\	.
8G#'\ 8e'\J	16gg#\	.
.	16bb'\JJ)	.
=39	=39	=39
8D#'\L	8r	.
8B#'\ 8f#'\	4gg#'^\ 4ggg#'^\	ff
8D#'\	.	.
8B#'\ 8f#'\J	8g#'\ 8gg#'\	.
=40	=40	=40
8E'\L	(16gg#\LL	<
.	16ff##\	.
8c#'\ 8g#'\	16gg#\	.
.	16ccc#'\JJ)	.
8E#'\	(16gg#\LL	.
.	16ff##\	.
8c#'\ 8g#'\J	16gg#\	.
.	16bb'\JJ)	ff
=41	=41	=41
(16FF#^/LL	8r	.
16EE#/	.	.
16FF#/	8aa'\ 8ccc#'\ 8aaa'\	.
16AA'/JJ)	.	.
(16C#^/LL	8r	.
16BB#/	.	.
16C#/	8ff#'\ 8ccc#'\ 8fff#'\	.
16E#'/JJ)	.	.
=42	=42	=42
(16F#^\LL	8r	.
16E#\	.	.
16F#\	8cc#'\ 8ff#'\ 8ccc#'\	.
16A'\JJ)	.	.
(16c#\LL	8r	.
16B#\	.	.
16c#\	8a'\ 8ff#'\ 8aa'\	.
16f#'\JJ)	.	.
=43	=43	=43
8r	(16gg#^\LL	.
.	16aa\	.
8G#'\ 8c#'\ 8e'\ 8g#'\	16gg#\	.
.	16ee'\JJ)	.
8r	(16dd#^\LL	.
.	16ee\	.
8G#'\ 8c#'\ 8e'\	16dd#\	.
.	16cc#'\JJ)	.
=44	=44	=44
8r	(16g#^/LL	.
.	16a/	.
8GG#'/ 8C#'/ 8E'/ 8G#'/	16g#/	.
.	16e'/JJ)	>
8r	(16d#^/LL	.
.	16e/	.
8GG#'/ 8C#'/ 8E'/	16d#/	.
.	16c#'/JJ)	.
=45	=45	=45
(16FF#/LL	8r	.
16EE#/	.	.
16FF#/	4A/ 4c#/ (4a/	.
16AA'/JJ)	.	.
(16C#/LL	.	.
16BB#/	.	.
16C#/)	8A'/ 8c#'/ 8e'/)	.
16En'/JJ	.	.
=46	=46	=46
(16GGn/LL	8r	.
16FF#/	.	.
16GG/	4A/ 4c#/ (4a/	.
16BB#'/JJ)	.	.
(16C#/LL	.	.
16BB#/	.	.
16C#/)	8A'/ 8c#'/ 8e'/)	.
16E'/JJ	.	.
=47	=47	=47
8BBn'\L	8r	.
8G#'\	(4e^/	p
8BB'\	.	.
8G#'\J	8B'/)	.
=48	=48	=48
8BB'\L	(16c#/LL	<
.	16B#/	.
8A'\	16c#/	.
.	16e'/JJ)	.
8BB'\	(16d#/LL	.
.	16c##/	.
8F#'\J	16d#/	.
.	16f#'/JJ)	.
=49	=49	=49
8BB'\L	8r	.
8G#'\	(4e/	p
8BB'\	.	.
8G#'\J	8B/)	.
=50	=50	=50
8BB'\L	(16c#/LL	<
.	16B#/	.
8A'\	16c#/	.
.	16e'/JJ)	.
8BB'\	(16d#/LL	.
.	16c##/	.
8F#'\J	16d#/	.
.	16f#'/JJ)	.
=51	=51	=51
8BB'\L	8r	.
8G#'\	(4b^\	mf
8BB'\	.	.
8G#'\J	8e'/)	.
=52	=52	=52
8BB'\L	(16f#/LL	.
.	16e#/	.
8A'\	16f#/	.
.	16a'/JJ)	.
8BB'\	(16a/LL	.
.	16g#/	.
8F#'\J	16a/	.
.	16ccn/JJ)	.
=53	=53	=53
8BB'\L	8r	.
8G#'\	(4b^\	.
8BB'\	.	.
8G#'\J	8e'/)	.
=54	=54	=54
8BB'\L	(16f#/LL	f
.	16e#/	<
8A'\	16f#/	.
.	(16a/JJ)	.
8BB'\	16a/LL	.
.	16g#/	.
8F#'\J	16a/)	.
.	16ccn'/JJ	.
=55	=55	=55
4EE'/ 4BB'/ 4G#'/	8r	.
.	8ee'^\ 8bb'^\ 8eee'^\	ff
4GG#'\ 4E'\ 4B'\	8r	.
.	8b'\ 8ee'\ 8bb'\	.
=56	=56	=56
*	*^	*
2r	16aa/LL	16f#\LL	<
.	16gg#/	16e#\	.
.	16aa/	16f#\	.
.	16cccn'/JJ	16a'\JJ	.
.	16ccc/LL	16a\LL	.
.	16bb/	16g#\	.
.	16ccc/	16a\	.
.	16eee'/JJ	16ccn'\JJ	.
*	*v	*v	*
=57	=57	=57
4EE'^/ 4BB'^/ 4G#'^/	8r	.
.	8ee'^\ 8bb'^\ 8eee'^\	ff
4GG#'\ 4E'\ 4B'\	8r	.
.	8b'\ 8ee'\ 8bb'\	.
=58	=58	=58
*	*^	*
2r	16aa/LL	(16f#\LL	<
.	16gg#/	16e#\	.
.	16aa/	16f#\	.
.	&(16cccn'/JJ&)	(16a'\JJ)	.
.	16ccc/LL	16a\LL	.
.	16bb/	16g#\	.
.	16ccc/	16a\	.
.	&(16eee'/JJ&)	16ccn'\JJ)	.
*	*v	*v	*
=59	=59	=59
(4EE^/ 4BB^/ 4G#^/	8r	.
.	4ee^\ (4eee^\	ff
4EE/ 4E/	.	.
.	8b'\ 8bb'\)	.
=60	=60	=60
4DD/ 4D/	8r	.
.	4e^/ 4ee^/	.
4BBB/) 4BB/	.	.
.	8E'/ 8e'/	.
=61	=61	=61
8AA'\L	8r	.
8E'\ 8c#'\	4ee^\ 4eee^\	.
8AA#'\	.	.
8E'\ 8c#'\J	8e'/ 8ee'/	.
=62	=62	=62
8BB'\L	(16ff#\LL	<
.	16ee#\	.
8E'\ 8d'\	16ff#\	.
.	16aa'\JJ)	.
8EE'\	(16gg#\LL	.
.	16ff##\	.
8BB'\ 8G#'\J	16gg#\	.
.	16bb'\JJ)	.
=63	=63	=63
8AA'\L	8r	.
8E'\ 8c#'\	4ee^\ 4eee^\	.
8AA#'\	.	.
8E'\ 8c#'\J	8e'/ 8ee'/	.
=64	=64	=64
8BB'\L	(16ff#\LL	<
.	16ee#\	.
8E'\ 8d'\	16ff#\	.
.	16aa'\JJ)	.
8EE'\	(16gg#\LL	.
.	16ff#\	.
8BB'\ 8G#'\J	16gg#\	.
.	16bb'\JJ)	.
=65	=65	=65
4FFF#'/ 4FF#'/	8r	.
.	4a\ 4ccn\ 4ee\ 4aa\	ff
4F#'\ 4A'\ 4cn'\ 4e'\	.	.
.	8e'/ 8a'/ 8cc'/ 8ee'/	.
*clefG2	*	*
=66	=66	=66
(16a\LL	(16ccn\LL	<
16g#\	16b\	.
16a\	16cc\	.
16ccn'\JJ)	16ee'\JJ)	.
(16cc\LL	(16ee\LL	.
16b\	16dd#\	.
16cc\	16ee\	.
16ee'\JJ)	16aa'\JJ)	.
*clefF4	*	*
=67	=67	=67
4AAA'/ 4AA'/	8r	.
.	4ccn'^\ 4ee'^\ 4aa'^\ 4cccn'^\	ff
4A'\ 4cn'\ 4e'\ 4f#'\	.	.
.	8e'/ 8a'/ 8cc'/ 8ee'/	.
*clefG2	*	*
=68	=68	=68
(16ccn\LL	(16ee\LL	<
16b\	16dd#\	.
16cc\	16ee\	.
16ee'\JJ)	16aa'\JJ)	.
(16ee\LL	(16aa\LL	.
16dd#\	16gg#\	.
16ee\	16aa\	.
16aa'\JJ)	16cccn'\JJ)	.
*clefF4	*	*
=69	=69	=69
8BB'\L	8r	.
8G#'\	(4e/	p
8BB'\	.	.
8G#'\J	8B'/)	.
=70	=70	=70
8BB'\L	(16c#/LL	<
.	16B#/	.
8A'\	16c#/	.
.	16e'/JJ)	.
8BB'\	(16d#/LL	.
.	16c##/	.
8F#'\J	16d#/	.
.	16f#'/JJ)	p
=71	=71	=71
8BB'\L	8r	.
8G#'\	(4b^\	.
8BB'\	.	.
8G#'\J	8e/)	.
=72	=72	=72
8BB'\L	(16f#/LL	<
.	16e#/	.
8A'\	16f#/	.
.	16a'/JJ)	.
8BB'\	16a/LL	.
.	16g#/	.
8F#'\J	16a/	.
.	16ccn'/JJ	.
=73	=73	=73
4EE'/ 4BB'/ 4G#'/	8r	.
.	8B/ 8e/ 8b/	mf
4E^\	8r	.
.	8B'/ 8e'/ 8b'/	>
=74	=74	=74
(16D\LL	8r	.
16C#\	.	.
16D\	8B'/ 8fn'/ 8a'/	.
16Fn'\JJ)	.	.
(16F\LL	8r	.
16E\	.	.
16F\	8B'/ 8f'/ 8a'/	.
16A'\JJ)	.	.
=75	=75	=75
4E'\	8r	.
.	8B'/ 8e'/ 8g#'/	.
4BB^/	8r	.
.	8B'/ 8e'/ 8g#'/	p
=76	=76	=76
(16AA/LL	8r	.
16GG#/	.	.
16AA/	8cn'/ 8e'/ 8f#'/	.
16Cn'/JJ)	.	.
(16C/LL	8r	.
16BB/	.	.
16C/	8c'/ 8e'/ 8f#'/	.
16E'/JJ)	.	.
=77	=77	=77
4BB'/	8r	.
.	8G#'/ 8B'/ 8e'/	pp
4EE'/	8r	.
.	8G#'/ 8B'/ 8e'/	.
=78	=78	=78
2r	2r	.
=79	=79	=79
4BB'/	8r	pp
.	8G#'/ 8B'/ 8e'/	.
4DD'/	8r	.
.	8G#'/ 8B'/ 8e'/	.
=80	=80	=80
2r	2r	.
=81	=81	=81
8Cn'/L	8Gn'/ 8cn'/ 8e'/L	p
8GGn'/	8G'/ 8B'/ 8d#'/J	.
8C'/J	[4Gn/ [4cn/ [4e/	.
(24GG/LL	.	.
24AA/	.	.
24BB/JJ	.	.
=82	=82	=82
8Cn'/L)	8Gn'/] 8cn'/] 8e'/L]	.
8GG#'/	8Fn'/ 8B'/ 8d'/	.
8AA'/	8E'/ 8A'/ 8c'/J	.
8GGn'/J	24A/ 24c/LL	.
.	24d/	.
.	24e/JJ	.
=83	=83	=83
8FFn'/L	8A'/ 8cn'/ &(8fn'/L&)	.
(24FF#/L	8A'/ 8c'/ 8e'/	.
24GGn/	.	.
24AA/J	.	.
8BB'/)	8F#'/ 8B'/ 8d#'/	.
8GG#'/J	8Fn'/ 8B'/ 8dn'/J	.
=84	=84	=84
8AA'/L	8E'/ 8A'/ 8cn'/L	.
8FFn'/	24A/ (24c/L	.
.	24d/	.
.	24e/J	.
8GGn'/J	8Fn'/ 8B'/ 8d'/)	.
(24GGGn/LL	8F'/ 8Gn'/ 8d#'/J	.
24AAA/	.	.
24BBB/JJ	.	.
=85	=85	=85
8CCn'/L)	8E'/ 8cn'/ 8e'/L	.
8GGn'/	8G#'/ 8B'/ 8d#'/J	.
8CC'/ 8Cn'/J	[4Gn/ [4cn/ [4e/	.
(24GG/LL	.	.
24AA/	.	.
24BB/JJ	.	.
=86	=86	=86
8Cn'\L)	8Gn'/] 8cn'/] 8e'/L]	<
(24BB\L	8A'/ 8d#'/ 8f#'/	.
24C#\	.	.
24D#\J	.	.
8E\J	8Gn'/ 8B'/ 8gn'/J	.
8Dn'\)	24e/ 24g/LL	.
.	24a/	.
.	24b/JJ	.
=87	=87	=87
8C#'/L	8e'/ 8gn'/ &(8ee'/L&)	>
(24AA/L	8e'/ 8g'/ 8b'/	.
24BB/	.	.
24C#/J	.	.
8D'/J)	8cn'/ 8e'/ 8g'/ 8b'/	.
(24D\LL	8c'/ 8d'/ 8f#'/ 8a'/J	.
24E\	.	.
24F#\JJ	.	.
=88	=88	=88
8Gn'/L)	8B'/ 8d'/ 8gn'/L	p
8Cn'/	24cn/ 24e/L	.
.	24fn/	.
.	24f#/J	.
8GGn'/J	8B'/ 8g'/J	<
(24GG/LL	8r	.
24AA/	.	.
24BB/JJ	.	.
=89	=89	=89
8CCn'/ 8Cn'/L)	8e'/ 8ccn'/ 8ee'/L	f
8GGn'/	8d#'/ 8b'/ 8dd#'/J	.
8CC'/ 8C'/J	[4e'^/ [4cc'^/ [4ee'^/	.
(24GG/LL	.	.
24AA/	.	.
24BB/JJ	.	.
=90	=90	=90
8CCn'/ 8Cn'/L)	8e/] 8cc/] 8ee/L]	.
8GGG#'/ 8GG#'/	8fn'/ 8b'/ 8dd'/	.
8AAA'/ 8AA'/	8e'/ 8a'/ 8ccn'/J	.
8GGGn'/ 8GGn'/J	24a\ 24cc\LL	.
.	24dd\	.
.	24ee\JJ	.
=91	=91	=91
8FFFn'/ 8FFn'/L	8a'\ 8ccn'\ &(8ffn'\L&)	.
(24FF#/L	8a'\ 8cc'\ 8ee'\	.
24GGn/	.	.
24AA/J	.	.
8BBB'/ 8BB'/)	8f#'\ 8b'\ 8dd#'\	.
8GG'/J	8fn'\ 8b'\ 8ddn'\J	.
=92	=92	=92
8AAA'/ 8AA'/L	8e'/ 8a'/ 8ccn'/L	.
8FFn'/	24a'/ (24cc'/L	.
.	24dd/	.
.	24ee/J	.
8GGGn'/ 8GGn'/J	8fn'/ 8b'/ 8dd'/)	.
24GG/LL	8f'/ 8gn'/ 8dd#'/J	.
24AA/	.	.
24BB/JJ	.	.
=93	=93	=93
8CCn'/ 8Cn'/L	8e'/ 8ccn'/ 8ee'/L	ff
8GGn'/	8d#'/ 8b'/ 8dd#'/J	.
8CC'/ 8C'/J	[4e^/ [4ccn^/ [4ee^/	.
(24GG/LL	.	.
24AA/	.	.
24BB/JJ	.	.
=94	=94	=94
8CCn'/ 8Cn'/L)	8e'\] 8ccn'\] 8ee'\L]	.
(24BB/L	8a'\ 8dd#'\ 8ff#'\	.
24C#/	.	.
24D#/J	.	.
8EE'/ 8E'/)	8gn'\ 8b'\ 8ggn'\J	.
8DDn'/ 8Dn'/J	24ee\ 24gg\LL	.
.	24aa\	.
.	24bb\JJ	.
=95	=95	=95
8CC#'/ 8C#'/L	8ee'\ 8ggn'\ 8bb'\ &(8eee'\L&)	.
(24AA/L	8ee\ 8gg\ 8bb\	.
24BB/	.	.
24C#/J)	.	.
8DD'/ 8D'/J	8ccn'\ 8ee'\ 8gg'\ 8bb'\	.
(24D\LL	8cc'\ 8dd'\ 8ff#'\ 8aa'\J	.
24E\	.	.
24F#\JJ	.	.
=96	=96	=96
8GGn'/ 8Gn'/L)	8b'\ 8dd'\ 8ggn'\L	.
8Cn'/	24ccn\ 24ee\L	.
.	24ffn\	.
.	24ff#\JJ	.
8GG'/	8b'\ 8dd'\ &(8gg'\&)	.
8GGGn'/J	8r	.
=97	=97	=97
8EE-'/	8gn'\ 8b-'\ 8ee-'\ 8ggn'\	ff
4.E-\	4.g\ 4.b-\ 4.ee-\	.
=98	=98	=98
8D-'\L	(16e-/LL	p
.	16d/	<
8E-'\ 8Gn'\ 8B-'\	16e-/	.
.	16gn'/JJ)	.
8C-'\	(16a-/LL	.
.	16g/	.
8E-'\ 8A-'\ 8c-'\J	16a-/	.
.	16cc-'/JJ)	.
=99	=99	=99
8DD-'/	8b-'\ 8ee-'\ 8ggn'\ 8bb-'\	ff
4.D-\	4.e-/ 4.gn/ 4.b-/ 4.ee-/	.
=100	=100	=100
8D-'\L	(16e-/LL	p
.	16d/	.
8E-'\ 8Gn'\ 8B-'\	16e-/	.
.	16gn'/JJ)	.
8C-'\	(16a-/LL	.
.	16g/	.
8E-'\ 8A-'\ 8c-'\J	16a-/	.
.	16cc-'/JJ)	p
=101	=101	=101
8BB-'\L	8r	.
8E-'\ 8G#'\ 8d-'\	(4ee-^\	.
8BB-'\	.	.
8E-'\ 8G#'\ 8d-'\J	8e-'/)	.
=102	=102	=102
8AA-'\L	(16e-/LL	<
.	16d/	.
8E-'\ 8A-'\ 8c-'\	16e-/	.
.	16a-'/JJ	.
8AAn'\	(16e-/LL)	.
.	16d/	.
8E-'\ 8G-'\ 8Bn'\J	16e-/	.
.	16g-'/JJ)	.
=103	=103	=103
8FFn'/	8ffn'^\ 8aan'^\ 8cccn'^\ 8fffn'^\	ff
4.Fn\	4.fn\ 4.a\ 4.ccn\ 4.ff\	.
=104	=104	=104
8E-'\L	(16fn/LL	p
.	16en/	.
8Fn'\ 8A'\ 8cn'\	16f/	.
.	16a'/JJ)	.
8D-'\	(16b-\LL	.
.	16a\	.
8F'\ 8B-'\ 8d-'\J	16b-\	.
.	16dd-'\JJ)	.
=105	=105	=105
8EE-'/	8ccn'\ 8ffn'\ 8aa'\ 8cccn'\	ff
4.E-\	4.fn\ 4.a\ 4.ccn\ 4.ffn\	.
=106	=106	=106
8E-'\L	(16fn/LL	p
.	16e/	.
8Fn'\ 8A'\ 8cn'\	16f/	.
.	16a'/JJ)	.
8D-'\	(16b-\LL	.
.	16a\	.
8F'\ 8B-'\ 8d-'\J	16b-\	.
.	16dd-'\JJ)	p
=107	=107	=107
8Cn'\L	8r	.
8Fn'\ 8A'\ 8e-'\	(4ffn^\	.
8C'\	.	.
8F'\ 8A'\ 8e-'\J	8fn'/)	.
=108	=108	=108
8BB-'\L	(16fn/LL	<
.	16e/	.
8Fn'\ 8B-'\ 8d-'\	16f/	.
.	16b-'/JJ)	.
8BBn'\	(16f/LL	.
.	16e/	.
8Fn'\ 8A-'\ 8d-'\J	16f/	.
.	16a-'/JJ)	.
=109	=109	=109
*k[b-e-a-d-]	*k[b-e-a-d-]	*k[b-e-a-d-]
*^	*	*
8r	8EE-'\L	2r	.
(4A-/	8C'\	.	.
.	8EE-'\	.	.
8E-/)	8C'\J	.	.
=110	=110	=110	=110
(16F/LL	8EE-\L	2r	.
16En/	.	.	.
16F/	8D-'\	.	.
16A-'/JJ)	.	.	.
(16G/LL	8EE-\	.	.
16F#/	.	.	.
16G/	8BB-'\J	.	.
16B-'/JJ)	.	.	.
=111	=111	=111	=111
8r	8EE-'\L	2r	.
(4A-^/	8C'\	.	.
.	8EE-'\	.	.
8E-/)	8C'\J	.	.
=112	=112	=112	=112
(16F/LL	8EE-'\L	2r	.
16En/	.	.	.
16F/	8D-'\	.	.
16A-'/JJ)	.	.	.
(16G/LL	8EE-'\	.	.
16F#/	.	.	.
16G/	8BB-'\J	.	.
16B-/JJ)	.	.	.
*v	*v	*	*
=113	=113	=113
8EE-'/L	8r	.
8C'/	(4e-^/	.
8EE-'/	.	.
8C'/J	8A-'/)	.
=114	=114	=114
8EE-'/L	(16B-/LL	.
.	16An/	.
8D-'/	16B-/	.
.	16d-'/JJ)	.
8EE-'/	(16d-/LL	.
.	16c/	.
8BB-'/J	16d-/	.
.	16f-'/JJ)	.
=115	=115	=115
8EE-'/L	8r	.
8C'/	(4e-^/	.
8EE-'/	.	.
8C'/J	8A-'/)	.
=116	=116	=116
8EE-/L	(16B-/LL	.
.	16An/	.
8D-'/	16B-/	.
.	16d-'/JJ)	.
8EE-'/	(16d-/LL	.
.	16c/	.
8BB-'/J	16d-/	.
.	16f-'/JJ)	.
=117	=117	=117
(16E-\LL	(16g/LL	<
16Dn\	16f#/	.
16E-\	16g/	.
16G'\JJ)	16b-'/JJ)	.
(16G\LL	(16b-\LL	.
16F#\	16an\	.
16G\	16b-\	.
16B-'\JJ)	16dd-'\JJ)	.
=118	=118	=118
(16B-\LL	(16dd-\LL	.
16An\	16cc\	.
16B-\	16dd-\	.
16d-'\JJ)	16ff-'\JJ)	.
(16d-\LL	(16ff-\LL	.
16c\	16ee-\	.
16d-\	16ff-\	.
16f-'\JJ)	16gg'\JJ)	.
=119	=119	=119
4E-'\ 4B-'\ 4d-'\ 4e-'\	16gg^\LL	.
.	16ddd-\	.
.	16bb-\	.
.	16gg\JJ	.
4r	16ee-\LL	.
.	16dd-\	.
.	16b-\	.
.	16g\JJ	.
=120	=120	=120
*^	*	*
4r	4EE-'\	16e-/LL	>
.	.	16d-/	.
.	.	16B-/	.
.	.	16G/JJ	.
16E-/LL	4r	4r	.
16D-/	.	.	.
16BB-/	.	.	.
16GG'/JJ	.	.	.
*v	*v	*	*
=121	=121	=121
8AA-'\L	8r	.
8E-'\ 8c'\	4ee-^\ 4eee-^\	p
8AA-'\	.	.
8E-'\ 8c'\J	8e-'/ 8ee-'/	.
=122	=122	=122
8AA-'\L	(16ff\LL	<
.	16een\	.
8F'\ 8d-'\	16ff\	.
.	16aa-'\JJ)	.
8AA-'\	(16gg\LL	.
.	16ff#\	.
8F-'\ 8d-'\J	16gg\	.
.	16bb-'\JJ)	.
=123	=123	=123
8AA-\L	8r	.
8E-'\ 8c'\	4ee-^\ 4eee-^\	p
8AA-'\	.	.
8E-'\ 8c'\J	8e-'/ 8ee-'/	.
=124	=124	=124
8AA-'\L	(16ff\LL	<
.	16een\	.
8F'\ 8d-'\	16ff\	.
.	16aa-'\JJ)	.
8AA-'\	(16gg\LL	.
.	16ff#\	.
8F-'\ 8d-'\J	16gg\	.
.	16bb-'\JJ)	.
=125	=125	=125
*^	*^	*
4e-/	(8e-\	(16aa-/LL	8r	p
.	.	16ccc/	.	.
.	8r	16aa-/	8f'\ 8a-'\ 8cc'\	.
.	.	16ff/JJ	.	.
4dn/	8dn\	16cc/LL	8r	.
.	.	16ddn/	.	.
.	8r	16ff/	8f'\ 8a-'\	.
.	.	16aa-/JJ)	.	.
=126	=126	=126	=126	=126
4c/	8c\	16aa-/LL	8r	.
.	.	16ccc/	.	.
.	8r	16aa-/	8dn'\ 8f'\ 8a-'\	.
.	.	16ff/JJ	.	.
4B-/)	8B-\	16cc/LL	8r	.
.	.	16ddn/	.	.
.	8r	16ff/	8d'\ 8f'\ 8a-'\	.
.	.	16aa-'/JJ	.	.
*v	*v	*	*	*
*	*v	*v	*
=127	=127	=127
4E-'\ 4d-'\ 4g'\	16ff^\LL	.
.	16ddd-\	.
.	16bb-\	.
.	16gg\JJ	.
4r	16ff\LL	.
.	16dd-\	.
.	16b-\	.
.	16g\JJ	.
=128	=128	=128
*^	*	*
4r	8EEE-'\ 8EE-'\	16f/LL	.
.	.	16d-/	.
.	8r	16B-/	.
.	.	16G/JJ	.
16F/LL	4r	4r	.
16D-/	.	.	.
16BB-/	.	.	.
16GG/JJ	.	.	.
*v	*v	*	*
=129	=129	=129
8AAA-'/ 8AA-'/L	8r	.
8E-'/ 8c'/	4ee-^\ 4eee-^\	f
8AA-'/	.	.
8E-'/ 8c'/J	8e-'/ 8ee-'/	.
=130	=130	=130
8AA-'\L	(16ff\LL	.
.	16een\	.
8F'\ 8d-'\	16ff\	.
.	16aa-'\JJ)	.
8AA-'\	(16gg\LL	.
.	16ff#\	.
8F-'\ 8d-'\J	16gg\	.
.	16bb-'\JJ)	.
=131	=131	=131
8AA-'\L	8r	.
8E-'\ 8c'\	4ee-^\ 4eee-^\	f
8AA-'\	.	.
8E-'\ 8c'\J	8e-'/ 8ee-'/	.
=132	=132	=132
8AA-'\L	(16ff\LL	<
.	16een\	.
8F'\ 8d-'\	16ff\	.
.	16aa-'\JJ)	.
8AA-'\	(16gg\LL	.
.	16ff#\	.
8F-'\ 8d-'\J	16gg\	.
.	16bb-'\JJ)	.
=133	=133	=133
*^	*^	*
4e-/	(8e-\	(16aa-/LL	8r	p
.	.	16gg/	.	.
.	8r	16aa-/	8f'\ 8a-'\	.
.	.	16ccc/JJ)	.	.
4d-/	8d-\	(16bb-/LL	8r	.
.	.	16ccc/	.	.
.	8r	16bb-/	8e-'\ 8g'\ 8b-'\	.
.	.	16gg'/JJ)	.	.
=134	=134	=134	=134	=134
4c/	8c\	16ff/LL	8r	.
.	.	16een/	.	.
.	8r	16ff/	8dn'\ 8f'\ 8a-'\	.
.	.	&(16aa-/JJ&)	.	.
4c-/	8c-\)	16gg/LL	8r	.
.	.	16bb-/	.	.
.	8r	16gg/	8dn'\ 8a-'\	.
.	.	&(16ff/JJ&)	.	.
*v	*v	*	*	*
*	*v	*v	*
=135	=135	=135
8B-\ (8dn\L	(16ff-\LL	f
.	16aa-\J	.
8f-'\ 8a-'\J)	8ddn'\J)	<
*clefG2	*	*
8b-\ (8ddn\L	(16fff-\LL	.
.	16aaa-\J	.
8ff-'\ 8aa-'\J)	8dddn'\J)	.
*clefF4	*	*
=136	=136	=136
8B-\ (8dn\L	(16ff-\LL	.
.	16aa-\J	.
8f-'\ 8a-'\J)	8ddn'\J)	.
8BB-\ (8Dn\L	(16f-/LL	.
.	16a-/J	.
8F-'\ 8A-'\J)	8dn'/J)	f
=137	=137	=137
(16d-\LL	[2e-/	ff
16An\J	.	.
[8B-^\J	.	.
16B-\LL]	.	.
16F#\J	.	.
[8G^\J	.	.
=138	=138	=138
16G\LL]	2e-/]	>
16Dn\J	.	.
[8E-^\J	.	.
16E-/LL]	.	.
16AAn/J	.	.
8BB-/J	.	.
=139	=139	=139
!	!enq/LLL	!.
!	!fq/	!.
!	!gq/JJJ	!.
8AA-'\L	&(8a-/&)	p
8E-'\) 8c'\	4a-^/	.
8AA-'\	.	.
8E-'\ 8c'\J	&(8e-'/&)	.
=140	=140	=140
8AA-'\L	(16f/LL	.
.	16en/	.
8F'\ 8d-'\	16f/	.
.	16a-'/JJ)	.
8AA-'\	(16g/LL	.
.	16f#/	.
8F-'\ 8d-'\J	16g/	.
.	16b-'/JJ)	.
=141	=141	=141
8r	8r	.
[4.Gn\	[4.d-/ [4.f/ [4.b-/	.
=142	=142	=142
2G\]	2d-/] 2f/] 2b-/]	.
=143	=143	=143
8AA-'\L	8r	.
8E-'\ 8c'\	(4a-^/	p
8AA-'\	.	.
8E-'\ 8c'\J	8e-'/)	.
=144	=144	=144
8AA-'\L	(16f/LL	.
.	16en/	.
8F'\ 8d-'\	16f/	.
.	16a-'/JJ)	.
8AA-'\	(16g/LL	.
.	16f#/	.
8F-'\ 8d-'\J	16g/	.
.	16b-'/JJ)	.
=145	=145	=145
8r	8r	.
[4.Gn\	[4.d-/ [4.f-/ [4.b--/	.
=146	=146	=146
2G\]	2d-/] 2f-/] 2b--/]	.
=147	=147	=147
(4E-\	8r	.
.	4A-/ 4c/ 4e-/ 4a-/	pp
4AA-/)	.	.
.	8A-'/ 8c'/ 8e-'/ 8a-'/	.
=148	=148	=148
(16DD-/LL	8r	.
16CC/	.	.
16DD-/	4B-/ 4d-/ (4g/	.
16FF-'/JJ)	.	.
(16FF-/LL	.	.
16EE-/	.	.
16FF-/	8B-'/ 8d-'/ 8f-'/)	.
16GGn'/JJ)	.	.
=149	=149	=149
(4AA-/	8r	.
.	4c/ 4e-/	.
4EE-'/)	.	.
.	8c'/ 8e-'/	.
=150	=150	=150
(16FF-/LL	8r	.
16EE-/	.	.
16FF-/	4G/ 4B-/ 4d-/	pp
16GG'/JJ)	.	.
(16GG/LL	.	.
16FF#/	.	.
16GG/	8G'/ 8B-'/ 8d-'/	.
16BB-'/JJ)	.	.
=151	=151	=151
(4AA-/	8r	.
.	4A-/ 4c/	.
4EE-'/)	.	.
.	8A-'/ 8c'/	.
=152	=152	=152
2r	2A-/ 2c/ 2a-/	ppp
=153	=153	=153
4GG-'/	8r	.
.	4.A-/ 4.c/	.
[4EE-/	.	.
=154	=154	=154
(4EE-/]	2A-/ 2a-/	.
4AAA-'/)	.	.
=155	=155	=155
*k[b-e-a-d-g-]	*k[b-e-a-d-g-]	*k[b-e-a-d-g-]
*M3/4	*M3/4	*M3/4
*MM92	*MM92	*MM92
*^	*^	*
8r	2.DD-\	(2a-/	4A-\ 4d-\ 4f\	pp
4AA-/	.	.	.	.
.	.	.	4A-\ 4Bn\	.
4AA-/	.	.	.	.
.	.	8.a-/L	4B--\ 4c\	.
8AA-/	.	.	.	.
.	.	16g-'/Jk)	.	.
=156	=156	=156	=156	=156
8AA-/	2.DD-\	(2f/	4A-\ 4d-\	.
4AA-/	.	.	.	.
.	.	.	4A-\ 4Bn\	.
4AA-/	.	.	.	.
.	.	8.f/L	4B--\ 4c\	.
8AA-/	.	.	.	.
.	.	16e-'/Jk)	.	.
*	*	*v	*v	*
=157	=157	=157	=157
8AA-/	2.DD-\	(8F/ 8c-/ 8d-/L	<
4AA-/	.	8e-/	.
.	.	8F/ 8c-/ 8f/	.
4AA-/	.	8G-/ 8g-/	.
.	.	8A-/ 8c-/ 8a-/	.
8AA-/	.	8An/) 8an/J	.
=158	=158	=158	=158
*	*	*^	*
4r	2DDn\ 2BB-\ 2F\	(8.b-/L	8B-\ 8f\	.
.	.	.	4B-\	.
.	.	16f/Jk	.	.
(8.B-/L	.	2f/)	.	pp
.	.	.	4B-\	.
16F'/Jk	.	.	.	.
4F/)	4r	.	.	.
.	.	.	8B-\	.
=159	=159	=159	=159	=159
8r	2.EE-\	(2b-/	4B-\ 4e-\ 4g-\	p
4BB-/	.	.	.	.
.	.	.	4B-\	.
4BB-/	.	.	.	.
.	.	8.b-/L	4c-\ 4dn\	.
8BB-/	.	.	.	.
.	.	16a-/Jk)	.	.
=160	=160	=160	=160	=160
8r	2.EE-\	(2g-/	4B-\ 4e-\	.
4BB-/	.	.	.	.
.	.	.	4B-\	.
4BB-/	.	.	.	.
.	.	8.g-/L	4Bn\ 4dn\	.
8BB-/	.	.	.	.
.	.	16f'/Jk)	.	.
*	*	*v	*v	*
=161	=161	=161	=161
8r	2.AAA-\	(8G-/ 8c/ 8e-/L	<
4AA-/	.	8f/	.
.	.	8G-/ 8c/ 8g-/	.
4AA-/	.	8Gn/ 8gn/	.
.	.	8A-/ 8c/ 8a-/	.
8AA-/	.	8An/) 8an/J	.
=162	=162	=162	=162
*	*	*^	*
4r	2.DD-\ 2.D-\	(8.b-^/L	8B-\ 8d-\	mf
.	.	.	4B-\	.
.	.	16f/Jk	.	.
(8.B-/L	.	2f/)	.	pp
.	.	.	4B-\	.
16F'/Jk	.	.	.	.
4F/)	.	.	.	.
.	.	.	8B-\	.
*	*	*v	*v	*
=163	=163	=163	=163
8r	2.GG-\	4d-/ 4g-/ 4b-/ 4dd-/	p
(8E-/L	.	.	.
8Cn/	.	4d-/ 4g-/ 4b-/ 4dd-/	.
8D-/	.	.	.
8G-/	.	4d-/ 4g-/ 4b-/ 4dd-/	.
8B-/J)	.	.	.
=164	=164	=164	=164
*	*	*^	*
(8.d-/L	2.DD-\	(8ee-/L	4f^\ 4a-^\	.
.	.	8dd-/	.	.
16F'/Jk)	.	.	.	.
2F''/	.	8a-/	4r	>
.	.	8f/	.	.
.	.	8e-/	4r	.
.	.	8d-/J)	.	.
*v	*v	*	*	*
*	*v	*v	*
=165	=165	=165
(8GG-/L	4G-/ 4B--/ 4d-/	<
8AA-/	.	.
8FF/	4G-/ 4B--/ 4d-/	.
8GG-/	.	.
8BB--/	4G-/ 4B--/ 4d-/	.
8D-/J)	.	.
=166	=166	=166
*^	*	*
(8.F^/L	2.DD-\	(8A-/ 8e-/L	.
.	.	8d-/	.
16AA-'/Jk	.	.	.
2AA-/)	.	8A-/	>
.	.	8F/	.
.	.	8E-/	.
.	.	8D-/J)	.
=167	=167	=167	=167
8DD-/L	2.DD-\	4e-/ 4f/ (4cc-/	pp
(8AA-/	.	.	.
8A-/	.	4d-/ 4f/ 4b-/	.
8AA-/	.	.	.
8DD-/	.	12c-/ 12f/ 12a-/L	<
.	.	12d-/ 12f/ 12b-/	.
8AA-/J	.	.	.
.	.	12e-/ 12f/ 12cc-/J)	.
=168	=168	=168	=168
8A-/L	2.DD-\)	4g-\ 4a-\ 4ee-\	.
8AA-/	.	.	.
8DD-/	.	4f/ 4a-/ 4dd-/	.
8AA-/	.	.	.
8A-/	.	12e-/ 12a-/ 12cc-/L	<
.	.	12f/ 12a-/ 12dd-/	.
8AA-/J	.	.	.
.	.	12g-/ 12a-/ &(12ee-/J&)	.
=169	=169	=169	=169
8DD-/L	2.DD-\	4b-^\ 4cc-^\ (4gg-^\	.
8AA-/	.	.	.
8A-/	.	4a-\ 4cc-\ 4ff\	.
8AA-/	.	.	.
8DD-/	.	4g-\ 4cc-\ 4ee-\	.
8AA-/J	.	.	.
=170	=170	=170	=170
8A-/L	&(2.DD-\&)	4e-/ 4f/ 4cc-/	>
8AA-/	.	.	.
8DD-/	.	4d-/ 4f/ 4b-/	.
8AA-/	.	.	.
8A-/	.	4c-/ 4f/ 4a-/)	.
(8AA-/J	.	.	.
*v	*v	*	*
=171	=171	=171
(4GG-/)	8.B-/ 8.dn/ 8.b-/L	.
.	&(16e-/Jk&)	.
12C-\L	2G-/ 2c-/ 2e-/	.
12E-\	.	.
12D-\J	.	.
6C-/	.	.
12BB-'/)	.	.
=172	=172	=172
[4AA-/	8.G-/ 8.c-/ (8.g-/L	.
.	16c-/Jk	.
(12AA-/L]	&(2E-/&) 2G-/ 2c-/)	.
12E-/	.	.
12C-/J	.	.
6BB-/	.	.
12AA-'/)	.	.
=173	=173	=173
2.DD-/ 2.AA-/	2.E-/ 2.F/ (2.c-/	ppp
=174	=174	=174
2DD-/ 2BB-/	2F/ 2B-/)	.
4DD-/ 4C-/	&(4F/&) 4A-/	.
*	*clefF4	*clefF4
=175	=175	=175
*k[f#c#g#]	*k[f#c#g#]	*k[f#c#g#]
*M2/4	*M2/4	*M2/4
*MM152	*MM152	*MM152
8FF#'/L	8C#'\ 8F#'\ 8A#'\L	pp
8CC#'/	8C#'\ 8E#'\ 8G##'\J	.
8FF#'/J	[4C#\ [4F#\ [4A#\	.
(24CC#/LL	.	.
24DD#/	.	.
24EE#/JJ	.	.
=176	=176	=176
8FF#'/L)	8C#'\] 8F#'\] 8A#'\L]	.
8CC##'/	8BB'\ 8E#'\ 8G#'\	.
8DD#'/	8AA#'\ 8D#'\ 8F#'\J	.
8CC#'/J	24D#\ 24F#\LL	.
.	24G#\	.
.	24A#\JJ	.
=177	=177	=177
8BBB'/L	8D#'\ 8F#'\ &(8B'\L&)	.
(24BBB#/L	8D#'\ 8F#'\ 8A#'\	.
24CC#/	.	.
24DD#/J	.	.
8EE#'/)	8BB#'\ 8E#'\ 8G##'\	.
8CC##'/J	8BBn'\ 8E#'\ 8G#'\J	.
=178	=178	=178
8DD#'/L	8AA#'\ 8D#'\ 8F#'\L	.
8BBB#'/	24D#\ (24F#\L	.
.	24G#\	.
.	24A#\J	.
8CC#'/J	8C#'\ 8E#'\ 8G#'\)	.
(24CC#/LL	8C#'\ 8E#'\ 8G##'\J	.
24DD#/	.	.
24EE#/JJ	.	.
=179	=179	=179
8FF#'/L)	8C#'\ 8F#'\ 8A#'\L	.
8CC#'/	8C#'\ 8E#'\ 8G##'\J	.
8FF#'/J	[4C#\ [4F#\ [4A#\	.
(24CC#/LL	.	.
24DD#/	.	.
24EE#/JJ	.	.
=180	=180	=180
8FF#'/L)	8C#\] 8F#\] 8A#\L]	<
(24EE#/L	8D#'\ 8G##'\ 8B#'\	.
24FF##/	.	.
24GG##/J	.	.
8AA#'/)	8C#'\ 8E#'\ 8c#'\	.
8GG#'/J	24A#\ 24c#\L	.
.	24d#\	.
.	24e#\JJ	.
=181	=181	=181
8FF##'/L	8A#'\ 8c#'\ &(8a#'\L&)	.
(24DD#/L	8A#'\ 8c#'\ 8e#'\	>
24EE#/	.	.
24FF##/JJ	.	.
8GG#'/L)	8F#'\ 8A#'\ 8c#'\ 8e#'\	.
(24GG#/L	8F#'\ 8G#'\ 8B#'\ 8d#'\J	.
24AA#/	.	.
24BB#/JJ	.	.
=182	=182	=182
8C#'/L)	8E#'\ 8G#'\ 8c#'\L	pp
8FF#'/	24F#\ 24A#\L	.
.	24B\	.
.	24B#\JJ	.
8CC#'/J	8E#'\ &(8c#'\&)	.
(24CC#/LL	8r	<
24DD#/	.	.
24EE#/JJ	.	.
*	*clefG2	*clefG2
=183	=183	=183
8FFF#'/ 8FF#'/L)	8a#'\ 8ff#'\ 8aa#'\L	ff
8CC#'/	8g##'\ 8ee#'\ 8gg##'\J	.
8FFF#'/ 8FF#'/J	4a#\ 4ff#\ 4aa#\	.
(24CC#/LL	.	.
24DD#/	.	.
24EE#/JJ	.	.
=184	=184	=184
8FFF#'/ 8FF#'/L)	8a#'\ 8ff#'\ &(8aa#'\L&)	.
8CC##'/ 8C##'/	8g#'\ 8ee#'\ 8gg#'\	.
8DD#'/ 8D#'/	8f#\ 8dd#\ 8ff#\J	.
8CC#'/ 8C#'/J	24dd#\ 24ff#\LL	.
.	24gg#\	.
.	24aa#\JJ	.
=185	=185	=185
8BBB'/ 8AAn'/L	8b'\ 8dd#'\ 8ff#'\ &(8bb'\L&)	ff
8FF#'/	8a#'\ 8dd#'\ 8ff#'\ 8aa#'\J	.
8BBB'/ 8AA'/J	4b^\ 4dd#^\ 4ff#^\ 4bb^\	.
*clefG2	*	*
(24f#/LL	.	.
24f##/	.	.
24g#/JJ	.	.
=186	=186	=186
8B'/ 8an'/L)	8b'\ 8dd'\ 8ff#'\ 8bb'\L	ff
8f#'/J	8a#'\ 8dd'\ 8ff#'\ 8aa#'\J	.
4B^/ 4a^/	4b^\ 4dd^\ 4ff#^\ 4bb^\	.
*clefF4	*clefF4	*clefF4
=187	=187	=187
8EE'/L	8E'\ 8Gn'\ 8B'\L	pp
8BBB'/	8E'\ 8G'\ 8A#'\J	.
8EE'/J	[4E\ [4Gn\ [4B\	.
(24BBB/LL	.	.
24CC#/	.	.
24DD#/JJ	.	.
=188	=188	=188
8EE'/L)	8E'\] 8Gn'\] 8B'\L]	.
8DD#'/	8Cn'\ 8F#'\ 8A'\	.
8EE'/	8BB'\ 8E'\ 8G'\J	.
8DDn'/J	24E\ 24G\LL	<
.	24A\	.
.	24B\JJ	.
=189	=189	=189
8CC#'/ 8BB'/L	8E'\ 8Gn'\ 8B'\ &(8e'\L&)	.
8GGn'/	8D#'\ 8G'\ 8B'\ 8d#'\J	.
8CC#'/ 8BB'/J	4E^\ 4G^\ 4B^\ 4e^\	.
*clefG2	*	*
(24gn/LL	.	.
24a/	.	.
24a#/JJ	.	.
*	*clefG2	*clefG2
=190	=190	=190
8c#'/ 8b'/L)	8ee'\ 8ggn'\ 8bb'\ 8eee'\L	ff
8gn'/J	8dd#'\ 8gg'\ 8bb'\ 8ddd#'\J	.
4c#^/ 4b^/	4ee^\ 4gg^\ 4bb^\ 4eee^\	.
*clefF4	*	*
=191	=191	=191
*^	*	*
16Gn/LL	4GGn\	8cn'/ 8e'/L	p
16F#/	.	.	.
16G/	.	8c'/ 8d#'/J	.
16F#/JJ	.	.	.
16G/LL	4GG#\	(4c/ [4e/	.
16F#/	.	.	.
16G/	.	.	.
16F#/JJ	.	.	.
=192	=192	=192	=192
16Gn/LL	4AA\	(16cn/) 16e/LL]	.
16F#/	.	16d#/J	.
16G/	.	[8c/ [8e/J	.
16F#/JJ	.	.	.
16G/LL	4AA#\	16c/] 16e/LL]	.
16F#/	.	16d#/J	.
16G/	.	8c'/) 8e'/J	<
16F#/JJ	.	.	.
=193	=193	=193	=193
16Gn/LL	4BB\	8e'/ 8gn'/L	.
16F#/	.	.	.
16G/	.	8f#'/J	.
16F#/JJ	.	.	.
16G/LL	4AA#\	[4e/ (4g/	.
16F#/	.	.	.
16G/	.	.	.
16F#/JJ	.	.	.
=194	=194	=194	=194
16Gn/LL	4BB\	(16e/] 16gn/LL)	.
16F#/	.	16f#/J	.
16G/	.	[8e/ [8g/J	.
16F#/JJ	.	.	.
16G/LL	(4BB#\	16e/] 16g/LL]	.
16F#/	.	16f#/J	.
16G/	.	8e'/) 8g'/J	.
16F#/JJ	.	.	.
*v	*v	*	*
=195	=195	=195
8C#'/)	8dd#'\ 8ff##'\ 8aa#'\ 8ddd#'\	ff
4.D#'\ 4.F##'\ 4.A#'\	4.d#/ 4.f##/ 4.a#/ 4.dd#/	.
=196	=196	=196
8C#'\L	(16d#/LL	p
.	16c##/	.
8D#'\ 8F##'\ 8A#'\	16d#/	.
.	16f##'/JJ)	.
8BB'\	(16g#/LL	.
.	16f##/	.
8D#'\ 8G#'\ 8B'\J	16g#/	.
.	16b'/JJ)	.
=197	=197	=197
8CC#'/	8aa#'\ 8ddd#'\ 8fff##'\ 8aaa#'\	ff
4.C#/	4.d#/ 4.f##/ 4.a#/ 4.dd#/	.
=198	=198	=198
8C#'\L	(16d#/LL	p
.	16c##/	.
8D#'\ 8F##'\ 8A#'\	16d#/	.
.	16f##'/JJ)	.
8BB'\	(16g#/LL	.
.	16f##/	.
8D#'\ 8G#'\ 8B'\J	16g#/	.
.	16b'/JJ)	p
=199	=199	=199
8AA#'\L	8r	.
8D#'\ 8F##'\ 8c#'\	(4dd#^\	.
8AA#'\	.	.
8D#'\ 8F##'\ 8c#'\J	8d#'/)	.
=200	=200	=200
8GG#'\L	(16d#/LL	<
.	16c##/	.
8D#'\ 8G#'\ 8B'\	16d#/	.
.	16g#'/JJ	.
8AAn'\	(16d#/LL)	.
.	16c##/	.
8D#'\ 8F#'\ 8B'\J	16d#/	.
.	16f#'/JJ)	.
=201	=201	=201
8FFn'/	8ffn'^\ 8aa'^\ 8cccn'^\ 8fffn'^\	ff
4.Fn\	4.fn\ 4.a\ 4.ccn\ 4.ffn\	.
=202	=202	=202
8E-'\L	(16fn/LL	p
.	16e/	.
8Fn'\ 8A'\ 8cn'\	16f/	.
.	16a'/JJ)	.
8D-'\	(16b-\LL	.
.	16a\	.
8Fn'\ 8B-'\ 8d-'\J	16b-\	.
.	16dd-'\JJ)	.
=203	=203	=203
8EE-'/	8ccn'^\ 8ffn'^\ 8aa'^\ 8cccn'^\	ff
4.E-\	4.fn\ 4.a\ 4.ccn\ 4.ffn\	.
=204	=204	=204
*k[f#]	*k[f#]	*k[f#]
8E-'\L	(16fn/LL	p
.	16e/	.
8Fn'\ 8A'\ 8cn'\	16f/	.
.	16a'/JJ)	.
8D-'\	(16b-\LL	.
.	16a\	.
8Fn'\ 8B-'\ 8d-'\J	16b-\	.
.	16dd-'\JJ)	p
=205	=205	=205
8Cn'\L	8r	.
8Fn'\ 8A'\ 8e-'\	(4ffn^\	.
8C'\	.	.
8F'\ 8A'\ 8e-'\J	8fn'/)	.
=206	=206	=206
8BB-'\L	(16fn/LL	<
.	16e/	.
8Fn'\ 8B-'\ 8d-'\	16f/	.
.	16b-'/JJ)	.
8BBn'\	(16fn/LL	.
.	16e/	.
8Fn'\ 8G#'\ 8dn'\J	16f/	.
.	16g#'/JJ)	pp
=207	=207	=207
*^	*	*
8r	8EEn'\L	2r	.
(4A^/	8C#'\	.	.
.	8EE'\	.	.
8E'/)	8C#'\J	.	.
=208	=208	=208	=208
16F#/LL	8EE'\L	2r	.
16E#/	.	.	.
16F#/	8D'\	.	.
16A'/JJ	.	.	.
16G/LL	8EE'\	.	.
16F##/	.	.	.
16G/	8BB'\J	.	.
16B'/JJ	.	.	.
*v	*v	*	*
=209	=209	=209
8EE/L	8r	.
8C'/	(4f#^/	.
8EE'/	.	.
8C'/J	8A'/)	.
=210	=210	=210
8EE'/L	(16B/LL	<
.	16A#/	.
8D'/	16B/	.
.	16d'/JJ)	.
8EE'/	(16d/LL	.
.	16c#/	.
8BB'/J	16d/	.
.	16fn'/JJ)	.
=211	=211	=211
(16D\LL	(16fn/LL	.
16C#\	16e/	.
16D\	16f/	.
(16Fn'\JJ)	16g#'/JJ)	.
16F\LL	(16g#/LL	.
16E\	16f##/	.
16F\	16g#/	.
16G#'\JJ)	16b'/JJ)	.
=212	=212	=212
(16G#\LL	(16b\LL	.
16F##\	16a#\	.
16G#\	16b\	.
16B'\JJ)	16dd'\JJ)	.
(16B\LL	(16dd\LL	.
16A#\	16cc#\	.
16B\	16dd\	.
16d'\JJ)	16ffn'\JJ)	f
=213	=213	=213
24EE\LL	8r	.
24AA#\	.	.
24BB\JJ	.	.
8r	24E/LL	.
.	24B/	.
.	24e'/JJ	.
24E\LL	8r	.
24A#\	.	.
24B\JJ	.	.
8r	24e\LL	.
.	24b\	.
.	24ee'\JJ	<
*clefG2	*	*
=214	=214	=214
24e\LL	8r	.
24a#\	.	.
24b\JJ	.	.
8r	24ee\LL	.
.	24bb\	.
.	24eee'\JJ	.
24ee\LL	8r	.
24aa#\	.	.
24bb\JJ	.	.
8r	24eee\LL	.
.	24fff#\	.
.	24ggg#\JJ	.
*clefF4	*	*
=215	=215	=215
8AAA'\ 8AA'\L	8aaa'\	ff
8E\ 8c#\	4aa^\ 4aaa^\	.
8AA'\	.	.
8E'\ 8c#'\J	8e'/ 8ee'/	.
=216	=216	=216
8AA'\L	(16ff#\LL	<
.	16ee#\	.
8F#'\ 8d'\	16ff#\	.
.	16aa'\JJ)	.
8AA'\	(16gg#\LL	.
.	16ff##\	.
8Fn'\ 8d'\J	16gg#\	.
.	16bb'\JJ)	.
=217	=217	=217
8AA'\L	8r	.
8E'\ 8c#'\	4aa^\ 4aaa^\	ff
8AA'\	.	.
8E'\ 8c#'\J	8e'/ 8ee'/	.
=218	=218	=218
8AA'\L	(16ff#\LL	<
.	16ee#\	.
8F#'\ 8d'\	16ff#\	.
.	16aa'\JJ)	.
8AA'\	(16gg#\LL	.
.	16ff##\	.
8Fn'\ 8d'\J	16gg#\	.
.	16bb'\JJ)	.
=219	=219	=219
*^	*^	*
4e/	(8e\	(16aa/LL	8r	p
.	.	16ccc#/	.	.
.	8r	16aa/	8f#'\ 8a'\ 8cc#'\	.
.	.	16ff#/JJ	.	.
4d#/	8d#\	16cc#/LL	8r	.
.	.	16dd#/	.	.
.	8r	16ff#/	8f#'\ 8a'\	.
.	.	16aa'/JJ)	.	.
=220	=220	=220	=220	=220
4c#/	8c#\	16aa/LL	8r	.
.	.	16ccc#/	.	.
.	8r	16aa/	8d#'\ 8f#'\ 8a'\	.
.	.	16ff#/JJ	.	.
4B/)	8B\	16cc#/LL	8r	.
.	.	16dd#/	.	.
.	8r	16ff#/	8d#'\ 8f#'\ 8a'\	.
.	.	&(16aa'/JJ&)	.	.
*v	*v	*	*	*
*	*v	*v	*
=221	=221	=221
4E'\ 4B'\ 4g#'\	16ff#^\LL	.
.	16dddn\	.
.	16bb\	.
.	16gg#\JJ	.
4r	16ff#\LL	.
.	16dd\	.
.	16b\	.
.	16g#\JJ	.
=222	=222	=222
*^	*	*
4r	8EEE'/ 8EE'/	16f#/LL	.
.	.	16d/	.
.	8r	16B/	.
.	.	16G#/JJ	.
16F#/LL	4r	4r	.
16D/	.	.	.
16BB/	.	.	.
16GG#/JJ	.	.	.
*v	*v	*	*
=223	=223	=223
8AA'\L	8r	.
8E'\ 8c#'\	4aa^\ 4aaa^\	f
8AA'\	.	.
8E'\ 8c#'\J	8e'/ 8ee'/	.
=224	=224	=224
8AA'\L	(16ff#\LL	<
.	16ee#\	.
8F#'\ 8d'\	16ff#\	.
.	16aa'\JJ)	.
8AA'\	(16gg#\LL	.
.	16ff##\	.
8Fn'\ 8d'\J	16gg#\	.
.	16bb'\JJ)	f
=225	=225	=225
8AA'\L	8r	.
8E'\ 8c#'\	4aa^\ 4aaa^\	.
8AA'\	.	.
8E'\ 8c#'\J	8e'/ 8ee'/	<
=226	=226	=226
8AA'\L	(16ff#\LL	.
.	16ee#\	.
8F#\ 8d\	16ff#\	.
.	16aa'\JJ)	.
8AA'\	(16gg#\LL	.
.	16ff##\	.
8Fn'\ 8d'\J	16gg#\	.
.	16bb'\JJ)	.
=227	=227	=227
*^	*^	*
4e/	(8e\	16aa/LL	8r	p
.	.	16gg#/	.	.
.	8r	16aa/	8f#'\ 8a'\ 8cc#'\	.
.	.	16ccc#'/JJ	.	.
4dn/	8dn\	16bb/LL	8r	.
.	.	16ccc#/	.	.
.	8r	16bb/	8e'\ 8g#'\	.
.	.	16gg#'/JJ	.	.
=228	=228	=228	=228	=228
4c#/	8c#\	16ff#/LL	8r	.
.	.	16ee#/	.	.
.	8r	16ff#/	8d#'\ 8f#'\ 8a'\	.
.	.	16aa'/JJ	.	.
4cn/	8cn\)	16gg#/LL	8r	.
.	.	16bb/	.	.
.	8r	16gg#/	8d#\ 8a\	.
.	.	16ff#'/JJ	.	.
*v	*v	*	*	*
*	*v	*v	*
=229	=229	=229
8B\ (8d#\L	(16ffn\LL	f
.	16aa\J	.
8fn\ 8a\J)	8dd#'\J)	.
*clefG2	*	*
8b\ (8dd#\L	(16fffn\LL	<
.	16aaa\J	.
8ffn'\ 8aa'\J)	8ddd#'\J)	.
*clefF4	*	*
=230	=230	=230
8B\ (8d#\L	(16ffn\LL	.
.	16aa\J	.
8fn\ 8a\)	8dd#'\J)	.
8BB\ (8D#\	(16f#/LL	.
.	16a/J	.
8Fn'\ 8A'\J)	8d#'/J)	.
=231	=231	=231
(16dn\LL	[2e/	ff
16A#\J	.	.
[8B^\J	.	.
16B\LL]	.	.
16F##\J	.	.
[8G#^\J	.	.
=232	=232	=232
16G#\LL]	2e/]	.
16D#\J	.	.
[8E^\J	.	.
16E/LL]	.	.
16AA#/J	.	.
8BB^/J	.	.
=233	=233	=233
!	!e#q/LLL	!.
!	!f#q/	!.
!	!g#q/JJJ	!.
8AA'\L)	&(8a'/&)	pp
8E'\ 8c#'\	4a^/	.
8GGn'\	.	.
8E'\J	&(8c#'/&)	.
=234	=234	=234
8FFn'\L	(16d/LL	<
.	16c#/	.
8D'\ 8A'\	16d/	.
.	16fn'/JJ)	.
8D'\	(16f/LL	.
.	16e/	.
8Fn'\ 8A'\J	16f/	.
.	16a'/JJ)	.
=235	=235	=235
8AA#'\L	8a#'/	p
8E#'\ 8c##'\	(4a#^/	.
8GG#'\	.	.
8E#'\J	8c##'/)	.
=236	=236	=236
8FF#'\L	(16d#/LL	<
.	16c##/	.
8D#'\ 8A#'\	16d#/	.
.	16f#'/JJ)	.
8AA#'\	(16f#/LL	.
.	16e#/	.
8D#'\ 8A#'\J	16f#/	.
.	16a#'/JJ)	.
=237	=237	=237
(16AAn/LL	8B'/ 8d#'/ 8f#'/ 8b'/L	mf
16GG#/	.	.
16AA/	8A#'^/ 8d#'^/ 8f#'^/ 8a#'^/J	<
16BB'/JJ)	.	.
(16BB^/LL	4B^/ 4d#^/ 4f#^/ 4b^/	.
16AA#/	.	.
16BB/	.	.
16D#'/JJ)	.	.
=238	=238	=238
(16E^\LL	8B^/ 8e^/ 8gn^/ 8b^/L	.
16D#\	.	.
16E\	8A#'^/ 8e'^/ 8g'^/ 8a#'^/J	.
16Gn'\JJ)	.	.
(16G^\LL	4B^/ 4e^/ 4g^/ 4b^/	.
16F#\	.	.
16G\	.	.
16B'\JJ)	.	.
=239	=239	=239
(16BB-^/LL	8cn'/ 8e'/ 8gn'/ 8ccn'/L	f
16AA/	.	.
16BB-/	8B'/ 8e'/ 8g'/ 8b'/J	<
16Cn'/JJ)	.	.
(16C^/LL	4c/ 4e/ 4g/ 4cc/	.
16BBn/	.	.
16C/	.	.
16E'/JJ)	.	.
=240	=240	=240
(16Fn^\LL	8cn'/ 8fn'/ 8a-'/ 8ccn'/L	.
16E\	.	.
16F\	8B'/ 8f'/ 8a-'/ 8b'/J	.
16A-'\JJ)	.	.
(16A-^\LL	4c^/ 4f^/ 4a-^/ 4cc^/	.
16Gn\	.	.
16A-\	.	.
16c#'\JJ)	.	.
=241	=241	=241
8BB'\L	8cc#'\	pp
8E#'\ 8c#'\	(4cc#^\	.
8BB'\	.	.
8E#'\ 8c#'\J	8e#'/)	.
=242	=242	=242
8AA'\L	(16f#/LL	<
.	16e#/	.
8F#'\ 8c#'\	16f#/	.
.	(16a'/JJ)	.
8F#'\	16a/LL	.
.	16g#/	.
8A'\ 8c#'\J	16a/	.
.	16cc#'/JJ)	.
=243	=243	=243
8D'\L	8dd'\	p
8A'\ 8f#'\	(4dd^\	.
8Cn'\	.	.
8A'\J	8f#'/)	.
=244	=244	=244
8BB-'\L	(16gn/LL	<
.	16f#/	.
8Gn'\ 8d'\	16g/	.
.	16b-'/JJ)	.
8D'\	(16b-\LL	.
.	16a\	.
8G'\ 8d'\J	16b-\	.
.	16dd'\JJ)	.
=245	=245	=245
(16C#\LL	8d#/ 8f##/ 8a#/ 8dd#/L	mf
16BB#\	.	.
16C#\	8c##/ 8f##/ 8a#/ 8cc##/J	<
16D#'\JJ)	.	.
(16D#\LL	4d#/ 4f##/ 4a#/ 4dd#/	.
16C##\	.	.
16D#\	.	.
16F##'\JJ)	.	.
=246	=246	=246
(16G#\LL	8d#^/ 8g#^/ 8b^/ 8dd#^/L	.
16F##\	.	.
16G#\	8c##^/ 8g#^/ 8b^/ 8cc##^/J	.
16B'\JJ)	.	.
(16B\LL	4d#^/ 4g#^/ 4b^/ 4dd#^/	.
16A#\	.	.
16B\	.	.
16d#'\JJ)	.	.
=247	=247	=247
(16Dn\LL	8e'^/ 8g#'^/ 8b'^/ 8ee'^/L	f
16C#\	.	.
16D\)	8d#'^/ 8g#'^/ 8b'^/ 8dd#'^/J	.
16E'\JJ	.	.
(16E\LL	4e^/ 4g#^/ 4b^/ 4ee^/	.
16D#\	.	.
16E\	.	.
16G#'\JJ)	.	.
=248	=248	=248
(16A\LL	8e'^/ 8a'^/ 8ccn'^/ 8ee'^/L	.
16G#\	.	.
16A\	8d#'^/ 8a'^/ 8cc'^/ 8dd#'^/J	.
16cn'\JJ)	.	.
(16c\LL	4e^/ 4a^/ 4cc^/ 4ee^/	.
16B\	.	.
16c\	.	.
16e'\JJ)	.	.
=249	=249	=249
8DD'/	8a'\ 8b'\ 8ffn'\ 8aa'\	.
4.D\	4.fn/ 4.a/ 4.b/	.
=250	=250	=250
2r;	2r;	.
=251	=251	=251
8BBB'/	8aa'\ 8ddd'\ 8fffn'\ 8aaa'\	.
4.BB/	4.a\ 4.dd\ 4.ffn\ 4.aa\	pp
=252	=252	=252
2r;	2r;	.
=253	=253	=253
*MM184	*MM184	*MM184
*^	*	*
8r	8EE'\L	8r	.
(4A^/	8C#'\	4.r	.
.	8EE\	.	.
8E/)	8C#'\J	.	.
=254	=254	=254	=254
(16F#/LL	8EE'\L	2r	.
16E#/	.	.	.
16F#/	8D'\	.	.
16A/JJ)	.	.	.
(16G#/LL	8EE'\	.	.
16F##/	.	.	.
16G#/	8BB'\J	.	.
16B/JJ)	.	.	.
=255	=255	=255	=255
8r	8EE'\L	2r	.
(4A^/	8C#'\	.	.
.	8EE'\	.	.
8E/)	8C#'\J	.	.
=256	=256	=256	=256
(16F#/LL	8EE'\L	2r	.
16E#/	.	.	.
16F#/	8D'\	.	.
16A/JJ)	.	.	.
(16G#/LL	8EE'\	.	.
16F##/	.	.	.
16G#/	8BB\J	.	.
16B/JJ)	.	.	.
*v	*v	*	*
=257	=257	=257
8EE\L	8r	.
8C#'\	(4e^/	pp
8EE\	.	.
8C#\J	8A'/)	.
=258	=258	=258
8EE'\L	(16B/LL	<
.	16A#/	.
8D'\	16B/	.
.	16d'/JJ)	.
8EE'\	(16d/LL	.
.	16c#/	.
8BB'\J	16d/	.
.	16fn'/JJ)	p
=259	=259	=259
8EE'\L	8r	.
8C#'\	(4e^/	.
8EE\	.	.
8C#'\J	8A'/)	.
=260	=260	=260
8EE'\L	(16A/LL	<
.	16A#/	.
8D\	16B/	.
.	16d'/JJ)	.
8EE'\	(16d/LL	.
.	16c#/	.
8BB\J	16d/	.
.	16f#'/JJ)	.
=261	=261	=261
(16D\LL	(16fn/LL	.
16C#\	16e/	.
16D\	16f/	.
16Fn'\JJ)	16g#'/JJ)	.
(16F\LL	(16g#/LL	.
16E\	16f##/	.
16F\	16g#/	.
16G#'\JJ)	16b'/JJ)	.
=262	=262	=262
(16G#\LL	(16b\LL	.
16F##\	16a#\	.
16G#\	16b\	.
16B'\JJ)	16dd'\JJ)	.
(16B\LL	(16dd\LL	.
16A#\	16cc#\	.
16B\	16dd\	.
16d'\JJ)	16ffn'\JJ)	f
=263	=263	=263
24EE\LL	8r	.
24AA#\	.	.
24BB\JJ	.	.
24E/LL	8r	.
24B/	.	.
24e'/JJ	.	.
24E\LL	8r	.
24A#\	.	.
24B\JJ	.	.
8r	24e/LL	<
.	24b/	.
.	24ee'/JJ	.
*clefG2	*	*
=264	=264	=264
24e/LL	8r	.
24a#/	.	.
24b/JJ	.	.
8r	24e/LL	.
.	24b/	.
.	24ee/JJ	.
24ee\LL	8r	.
24aa#\	.	.
24bb\JJ	.	.
8r	24ee/LL	.
.	24ff#/	.
.	24gg#/JJ	.
*clefF4	*	*
=265	=265	=265
*^	*	*
8AA'\L	4r	8a'\ 8aa'\	ff
*clefG2	*	*	*
8cc#'\ 8ee'\	.	4a\ (4aa\	<
8g#^\	(4g#^/	.	.
8cc#'\ 8ee'\J	.	8ee'\)	.
=266	=266	=266	=266
8f#^\L	4f#^/	16ff#\LL	.
.	.	16ee#\	.
8cc#'\ 8ee'\	.	16ff#\	.
.	.	&(16aa'\JJ&)	.
8e\	4e/)	16gg#\LL	.
.	.	16ff##\	.
8g#'\ 8dd'\J	.	16gg#\	.
.	.	&(16bb'\JJ&)	.
*clefF4	*	*	*
=267	=267	=267	=267
(8A^\L	4A^/	8a'\ 8aa'\	ff
8c#'\ 8e'\	.	(4aa\	.
8G#^\	4G#^/	.	.
8c#'\ 8e'\J	.	8ee'\)	.
=268	=268	=268	=268
8F#^\L	4F#^/	16ff#\LL	<
.	.	16ee#\	.
8c#'\ 8e'\	.	16ff#\	.
.	.	&(16aa'\JJ&)	.
8E^\	4E/)	16gg#\LL	.
.	.	16ff##\	.
8G#'\ 8d'\J	.	16gg#\	.
.	.	&(16bb'\JJ&)	.
=269	=269	=269	=269
(8AA\L	4AA^/	8a'\ 8aa'\	.
8E'\ 8c#'\	.	4a^\ 4aa^\	f
8GG#\	4GG#^/	.	.
8E'\ 8c#'\J	.	[8e^/ [8ee^/	f
=270	=270	=270	=270
8FF#^/L	4FF#^\	8e/] 8ee/]	.
8C#'/ 8E'/	.	4a^\ 4aa^\	f
8EE^/)	4EE^\	.	.
8GG#'/ 8D'/ 8E'/J	.	8e^/ 8ee^/	f
=271	=271	=271	=271
8AA\L	(4AA^/	8A/ 8a/	.
8C#\ 8E\	.	4A^/ 4a^/	.
8GG#^\	4GG#^/	.	.
8C#\ 8E\J	.	[8e^/	.
=272	=272	=272	=272
8FF#^\L	4FF#^/	8e/]	.
8C#\ 8E\	.	4A^/ 4a^/	.
8EE\	4EE^/	.	.
8GG#\) 8D\J	.	8e'^/	ff
=273	=273	=273	=273
4C#'/ 4A'/	4AAA'\ 4EE'\	4r	.
4r	24AA\LL	8r	.
.	24D#\	.	.
.	24E\JJ	.	.
.	8r	24c#/LL	.
.	.	24B#/	.
.	.	24c#/JJ	.
*v	*v	*	*
=274	=274	=274
24A\LL	8r	.
24d#\	.	.
24e\JJ	.	.
8r	24cc#/LL	.
.	24b#/	.
.	24cc#/JJ	.
8r	24a\LL	.
.	24dd#\	.
.	24ee\JJ	.
8r	24aa/LL	.
.	24bb/	.
.	24ccc#/JJ	.
=275	=275	=275
4DD'/ 4D'/	4aa'\ 4bb'\ 4fffn'\ 4aaa'\	.
24D\LL	8r	.
24G#\	.	.
24A\JJ	.	.
8r	(24d/LL	.
.	24a/	.
.	24dd/JJ)	.
=276	=276	=276
2r	(24d\LL	.
.	24g#\	<
.	24a\JJ	.
.	24dd/LL	.
.	24aa/	.
.	24ddd'/JJ)	.
.	(24d\LL	.
.	24g#\	.
.	24a\JJ	.
.	24dd/LL	.
.	24aa/	.
.	24ddd'/JJ)	.
=277	=277	=277
[2AAA/ [2AA/	[2cc#\ [2aa\ [2ccc#\	fff
=278	=278	=278
4AAA/] 4AA/]	4cc#\] 4aa\] 4ccc#\]	.
4r	4r	.
=279	=279	=279
[2D\ [2d\	[2a\ [2b\ [2ffn\ [2aa\	.
=280	=280	=280
2D\] 2d\]	2a\] 2b\] 2ff\] 2aa\]	.
=281	=281	=281
8AA'\ 8E'\ 8c#'\	[2a\ [2cc#\ [2ee\ [2aa\	.
[4.AAA/ [4.AA/	.	.
=282	=282	=282
4AAA/] 4AA/]	4a\] 4cc#\] 4ee\] 4aa\]	.
4r	4r	.
==	==	==
*-	*-	*-
!!!ENC: Craig Stuart Sapp
!!!END: 2008/07/15/
